public/images/logo-dashes.svg

<svg width="214" height="19" viewBox="0 0 214 19" xmlns="http://www.w3.org/2000/svg">
  <g stroke="#FFF" fill="none" fill-rule="evenodd">
    <path d="M212.068921 1.0009997S200.089403 1 199.632401 1c-.802405 0-1.315965.5113496-1.690151 1.02319906-.077261.10546898-10.756975 14.73666564-10.756975 14.73666564-.426703.6788004-.090895 1.2366363.745848 1.2391356 0 0 12.208272.0009997 12.403698.0009997.802405 0 1.315964-.5118495 1.690151-1.0236989.00101-.0019994 10.790302-14.73616585 10.790302-14.73616585.425694-.67880035.090391-1.23713613-.746353-1.23913554M185.497493 1.0009997S173.517974 1 173.060972 1c-.802405 0-1.315964.5113496-1.690151 1.02319906-.077261.10546898-10.756974 14.73666564-10.756974 14.73666564-.426704.6788004-.090896 1.2366363.745848 1.2391356 0 0 12.208272.0009997 12.403697.0009997.802405 0 1.315965-.5118495 1.690151-1.0236989.00101-.0019994 10.790303-14.73616585 10.790303-14.73616585.425694-.67880035.09039-1.23713613-.746353-1.23913554M158.926064 1.0009997S146.946546 1 146.489544 1c-.802405 0-1.315965.5113496-1.690151 1.02319906-.077261.10546898-10.756975 14.73666564-10.756975 14.73666564-.426703.6788004-.090895 1.2366363.745848 1.2391356 0 0 12.208272.0009997 12.403698.0009997.802405 0 1.315964-.5118495 1.69015-1.0236989.00101-.0019994 10.790303-14.73616585 10.790303-14.73616585.425694-.67880035.090391-1.23713613-.746353-1.23913554M132.354636 1.0009997S120.375117 1 119.918115 1c-.802405 0-1.315964.5113496-1.690151 1.02319906-.077261.10546898-10.756974 14.73666564-10.756974 14.73666564-.426704.6788004-.090896 1.2366363.745848 1.2391356 0 0 12.208272.0009997 12.403697.0009997.802405 0 1.315964-.5118495 1.690151-1.0236989.00101-.0019994 10.790303-14.73616585 10.790303-14.73616585.425693-.67880035.09039-1.23713613-.746353-1.23913554M105.783207 1.0009997S93.8036887 1 93.3466864 1c-.802405 0-1.3159644.5113496-1.6901508 1.02319906-.0772612.10546898-10.7569744 14.73666564-10.7569744 14.73666564-.4267038.6788004-.0908955 1.2366363.7458479 1.2391356 0 0 12.2082721.0009997 12.4036974.0009997.802405 0 1.3159644-.5118495 1.6901508-1.0236989.0010099-.0019994 10.7903027-14.73616585 10.7903027-14.73616585.425694-.67880035.090391-1.23713613-.746353-1.23913554M79.2117786 1.0009997S67.2322601 1 66.7752579 1c-.8024051 0-1.3159645.5113496-1.6901509 1.02319906-.0772611.10546898-10.7569744 14.73666564-10.7569744 14.73666564-.4267037.6788004-.0908954 1.2366363.7458479 1.2391356 0 0 12.2082721.0009997 12.4036974.0009997.802405 0 1.3159645-.5118495 1.6901508-1.0236989.00101-.0019994 10.7903028-14.73616585 10.7903028-14.73616585.4256938-.67880035.0903905-1.23713613-.7463529-1.23913554M52.64035 1.0009997S40.6608315 1 40.2038293 1c-.8024051 0-1.3159645.5113496-1.6901509 1.02319906-.0772611.10546898-10.7569743 14.73666564-10.7569743 14.73666564-.4267038.6788004-.0908955 1.2366363.7458478 1.2391356 0 0 12.2082721.0009997 12.4036974.0009997.8024051 0 1.3159645-.5118495 1.6901509-1.0236989.0010099-.0019994 10.7903027-14.73616585 10.7903027-14.73616585.4256938-.67880035.0903905-1.23713613-.7463529-1.23913554M26.0689215 1.0009997S14.089403 1 13.6324007 1c-.802405 0-1.3159645.5113496-1.6901508 1.02319906-.0772612.10546898-10.75697442 14.73666564-10.75697442 14.73666564-.42670375.6788004-.09089547 1.2366363.74584787 1.2391356 0 0 12.20827215.0009997 12.40369735.0009997.8024051 0 1.3159645-.5118495 1.6901509-1.0236989.0010099-.0019994 10.7903027-14.73616585 10.7903027-14.73616585.4256938-.67880035.0903905-1.23713613-.7463528-1.23913554"/>
  </g>
</svg>

<svg width="214" height="19" xmlns="http://www.w3.org/2000/svg"><path d="M212.069 1.001L199.632 1c-.802 0-1.316.511-1.69 1.023L187.185 16.76c-.426.679-.09 1.237.746 1.239l12.404.001c.802 0 1.316-.512 1.69-1.024l10.79-14.736c.426-.679.09-1.237-.746-1.239m-26.572 0L173.061 1c-.802 0-1.316.511-1.69 1.023L160.614 16.76c-.427.679-.091 1.237.746 1.239l12.403.001c.803 0 1.316-.512 1.69-1.024l10.79-14.736c.427-.679.091-1.237-.746-1.239m-26.57 0L146.49 1c-.803 0-1.316.511-1.69 1.023L134.041 16.76c-.426.679-.09 1.237.746 1.239l12.404.001c.802 0 1.316-.512 1.69-1.024l10.79-14.736c.426-.679.09-1.237-.746-1.239m-26.571 0L119.918 1c-.802 0-1.316.511-1.69 1.023L107.471 16.76c-.427.679-.09 1.237.746 1.239L120.62 18c.802 0 1.315-.512 1.69-1.024 0-.002 10.79-14.736 10.79-14.736.426-.679.09-1.237-.746-1.239m-26.572 0L93.347 1c-.803 0-1.316.511-1.69 1.023L80.9 16.76c-.427.679-.091 1.237.745 1.239L94.05 18c.803 0 1.316-.512 1.69-1.024L106.53 2.24c.426-.679.091-1.237-.746-1.239m-26.571 0L66.775 1c-.802 0-1.316.511-1.69 1.023L54.328 16.76c-.427.679-.09 1.237.746 1.239L67.478 18c.802 0 1.316-.512 1.69-1.024 0-.002 10.79-14.736 10.79-14.736.426-.679.09-1.237-.746-1.239m-26.572 0L40.204 1c-.803 0-1.316.511-1.69 1.023L27.757 16.76c-.427.679-.091 1.237.746 1.239L40.906 18c.803 0 1.316-.512 1.69-1.024L53.386 2.24c.426-.679.091-1.237-.746-1.239m-26.571 0L13.632 1c-.802 0-1.316.511-1.69 1.023L1.185 16.76c-.426.679-.09 1.237.746 1.239L14.335 18c.802 0 1.316-.512 1.69-1.024L26.815 2.24c.426-.679.09-1.237-.746-1.239" stroke="#FFF" fill="none"/></svg>
